X:160
T: Jetzt gang i ans Brnnele (2-53), S. 142f
N: K1135
O: Luxemburg
S: KINTZELE, Guillaume: An der Ucht, Bd. 2, Luxemburg 1927]
N: in der Quelle mit einer 2. Stimme versehen
R: Scherzlied ber Treue und Untreue]
M: 3/4
L: 1/8
K: G
D2 | G3FGA | B3cB2 | A2G2A2 | G4
GA | B3ABc | d3ed2 | c2B2c2 | B4z2 |
d6 | dcc2c2 | B2dBB2 |
BAA2A2 | B2d2z2 | d6 |
dcc2c2 | B2dBB2 |
BAA2A2 | G4

@@@ Tune index: 8214
